X: 185
T:Austin's Hornpipe
M:4/4
L:1/4
C:Bob McQuillen
R:Hornpipe
K:D
DE F2 | FG FE | DF A2 | d2 d2 | cB AF | AB AF | dA Bd | AF E2 | DE F2 |
FG FE | DE FD | FA d2 | FD CD | EF GA | Bc d2 | f2 d2: | de fd | Ae dB |
 AG FD  | FA d2 | ef gb | ge fa | fd ce | dB A2 | de fd | ce dB | AG FD
| FA df | dB Ad | fd Ac | ec d2 | f2 d2: |
